X: 1
T: Jamesy Gannon's
M: 4/4
L: 1/8
R: barndance
K: Gmaj
D2GA B2B2|(3ABA GA B<d dg|e<d ge dBGB|A<G BG A<G EG|
D2GA B2B2|(3ABA GA B<d dg|e<d ge dBGB|1AGEF G2FE:|2AGEF G2Gg||
gfga bage|d^cde dBGg|gfga baga|agab a2ef|
gfga bage|dcde d2ef|g2(3fgf (3efe dB|c2(3BcB A2(3GFE||
